icons/breezeLight/toolpath/prof_in_conv.svg

<svg height="75" viewBox="0 0 19.84375 19.843751" width="75" xmlns="http://www.w3.org/2000/svg"><g transform="translate(0 -277.15623)"><circle cx="6.217709" cy="287.07806" fill="#4d4d4d" fill-opacity=".5" r="1.719792" stroke-width=".264583"/><path d="m15 15v45h45v-45zm1 1h21.462891a7.4999998 7.4999998 0 0 0 -7.462891 7.5 7.4999998 7.4999998 0 0 0 7.5 7.5 7.4999998 7.4999998 0 0 0 7.5-7.5 7.4999998 7.4999998 0 0 0 -7.5-7.5h21.5v43h-43v-21.5zm0 21.5a7.4999998 7.4999998 0 0 0 7.5 7.5 7.4999998 7.4999998 0 0 0 7.5-7.5 7.4999998 7.4999998 0 0 0 -7.5-7.5 7.4999998 7.4999998 0 0 0 -.037109 0 7.4999998 7.4999998 0 0 0 -7.462891 7.5zm7.5-6.5a6.5 6.5 0 0 1 6.5 6.5 6.5 6.5 0 0 1 -6.5 6.5 6.5 6.5 0 0 1 -6.5-6.5 6.5 6.5 0 0 1 6.5-6.5z" fill="#4d4d4d" stroke-width=".989072" transform="matrix(.26458334 0 0 .26458334 0 277.15623)"/><circle cx="9.921875" cy="283.3739" fill="#3daee9" r="1.719792" stroke-width=".264583"/><path d="m28 19v1l7.5 3h-12.5v1 12.087891a1.5000001 1.5000001 0 0 0 -1 1.412109 1.5000001 1.5000001 0 0 0 1.5 1.5 1.5000001 1.5000001 0 0 0 1.5-1.5 1.5000001 1.5000001 0 0 0 -1-1.412109v-12.087891h11.501953l-7.501953 3v1l8.488281-3.394531a1.5000001 1.5000001 0 0 0 1.011719.394531 1.5000001 1.5000001 0 0 0 1.5-1.5 1.5000001 1.5000001 0 0 0 -1.5-1.5 1.5000001 1.5000001 0 0 0 -1.011719.394531z" fill="#da4453" stroke-width=".807575" transform="matrix(.26458334 0 0 .26458334 0 277.15623)"/></g></svg>

<?xml version="1.0" encoding="UTF-8" standalone="no"?>
<svg
   xmlns:dc="http://purl.org/dc/elements/1.1/"
   xmlns:cc="http://creativecommons.org/ns#"
   xmlns:rdf="http://www.w3.org/1999/02/22-rdf-syntax-ns#"
   xmlns:svg="http://www.w3.org/2000/svg"
   xmlns="http://www.w3.org/2000/svg"
   xmlns:sodipodi="http://sodipodi.sourceforge.net/DTD/sodipodi-0.dtd"
   xmlns:inkscape="http://www.inkscape.org/namespaces/inkscape"
   sodipodi:docname="prof_in_conv.svg"
   inkscape:version="1.0beta1 (fe3e306, 2019-09-17)"
   id="svg8"
   version="1.1"
   viewBox="0 0 19.84375 19.843751"
   height="75"
   width="75">
  <defs
     id="defs2" />
  <sodipodi:namedview
     inkscape:document-rotation="0"
     inkscape:window-maximized="0"
     inkscape:window-y="0"
     inkscape:window-x="800"
     inkscape:window-height="1042"
     inkscape:window-width="1104"
     showguides="false"
     units="px"
     showgrid="true"
     inkscape:current-layer="layer1"
     inkscape:document-units="px"
     inkscape:cy="45.65683"
     inkscape:cx="26.281191"
     inkscape:zoom="16"
     inkscape:pageshadow="2"
     inkscape:pageopacity="0.0"
     borderopacity="1.0"
     bordercolor="#666666"
     pagecolor="#ffffff"
     id="base">
    <inkscape:grid
       id="grid10"
       type="xygrid" />
  </sodipodi:namedview>
  <metadata
     id="metadata5">
    <rdf:RDF>
      <cc:Work
         rdf:about="">
        <dc:format>image/svg+xml</dc:format>
        <dc:type
           rdf:resource="http://purl.org/dc/dcmitype/StillImage" />
        <dc:title />
      </cc:Work>
    </rdf:RDF>
  </metadata>
  <g
     transform="translate(0,-277.15623)"
     id="layer1"
     inkscape:groupmode="layer"
     inkscape:label="Layer 1">
    <circle
       style="fill:#4d4d4d;stroke-width:0.264583;fill-opacity:0.5"
       id="path24-2"
       cx="6.2177086"
       cy="287.07806"
       r="1.7197917" />
    <path
       transform="matrix(0.26458334,0,0,0.26458334,0,277.15623)"
       d="M 15 15 L 15 60 L 60 60 L 60 15 L 15 15 z M 16 16 L 37.462891 16 A 7.4999998 7.4999998 0 0 0 30 23.5 A 7.4999998 7.4999998 0 0 0 37.5 31 A 7.4999998 7.4999998 0 0 0 45 23.5 A 7.4999998 7.4999998 0 0 0 37.5 16 L 59 16 L 59 59 L 16 59 L 16 37.5 L 16 16 z M 16 37.5 A 7.4999998 7.4999998 0 0 0 23.5 45 A 7.4999998 7.4999998 0 0 0 31 37.5 A 7.4999998 7.4999998 0 0 0 23.5 30 A 7.4999998 7.4999998 0 0 0 23.462891 30 A 7.4999998 7.4999998 0 0 0 16 37.5 z M 23.5 31 A 6.5 6.5 0 0 1 30 37.5 A 6.5 6.5 0 0 1 23.5 44 A 6.5 6.5 0 0 1 17 37.5 A 6.5 6.5 0 0 1 23.5 31 z "
       style="stroke-width:0.989072;fill:#4d4d4d;fill-opacity:1"
       id="rect14" />
    <circle
       r="1.7197917"
       cy="283.3739"
       cx="9.921875"
       id="path24"
       style="fill:#3daee9;stroke-width:0.26458335;fill-opacity:1" />
    <path
       id="rect26"
       transform="matrix(0.26458334,0,0,0.26458334,0,277.15623)"
       d="M 28 19 L 28 20 L 35.5 23 L 23 23 L 23 24 L 23 36.087891 A 1.5000001 1.5000001 0 0 0 22 37.5 A 1.5000001 1.5000001 0 0 0 23.5 39 A 1.5000001 1.5000001 0 0 0 25 37.5 A 1.5000001 1.5000001 0 0 0 24 36.087891 L 24 24 L 35.501953 24 L 28 27 L 28 28 L 36.488281 24.605469 A 1.5000001 1.5000001 0 0 0 37.5 25 A 1.5000001 1.5000001 0 0 0 39 23.5 A 1.5000001 1.5000001 0 0 0 37.5 22 A 1.5000001 1.5000001 0 0 0 36.488281 22.394531 L 28 19 z "
       style="fill:#da4453;stroke-width:0.80757487;fill-opacity:1" />
  </g>
</svg>
